src/assets/images/filter.svg

<svg width="16" height="16" viewBox="0 0 16 16" fill="none" xmlns="http://www.w3.org/2000/svg">
<path d="M6.22222 13.3333H9.77778V11.5555H6.22222V13.3333ZM0 2.66666V4.44443H16V2.66666H0ZM2.66667 8.88888H13.3333V7.1111H2.66667V8.88888Z" fill="#545F7D"/>
</svg>

<svg xmlns="http://www.w3.org/2000/svg" width="16" height="16" fill="none"><path fill="#545F7D" d="M6.222 13.333h3.556v-1.777H6.222v1.777ZM0 2.667v1.777h16V2.667H0Zm2.667 6.222h10.666V7.11H2.667v1.78Z"/></svg>
